video-box.svg

<svg fill="currentColor" viewBox="0 0 24 24"><path d="m18 16-4-3.2V16H6V8h8v3.2L18 8m2-4H4a2 2 0 0 0-2 2v12a2 2 0 0 0 2 2h16a2 2 0 0 0 2-2V6a2 2 0 0 0-2-2"/></svg>

<svg  viewBox="0 0 24 24" fill="currentColor"><path  d="M18,16L14,12.8V16H6V8H14V11.2L18,8M20,4H4A2,2 0 0,0 2,6V18A2,2 0 0,0 4,20H20A2,2 0 0,0 22,18V6C22,4.89 21.1,4 20,4Z"/></svg>
